X: 09262
T: the JEW OF MOGADORE
B: Button & Whitaker "Button and Whitaker's Selection of Dances, Reels and Waltzes" v.9 p.26 #2
S: http://imslp.org/wiki/Button_and_Whitaker%27s_Selection_of_Dances,_Reels_and_Waltzes_(Various)
Z: 2014 John Chambers <jc:trillian.mit.edu>
M: 6/8
L: 1/8
K: D
% - - - - - - - - - - - - - - - - - - - - - - - - -
% Staff layout changed to fit our page size:
V: 1 clef=treble middle=B
A |\
Adf fed | dcB BAA | Adf fed | cde e2c |\
def fed | cBB B2B | Bee ecc | dAd d2 :|
|: d |\
dBB B^AB | cBc dBB | dBB B^AB | cBc dBB |\
BAA AGA | Add d2d | cde efg | fdd d2 :|
% - - - - - - - - - - - - - - - - - - - - - - - - -
% Original staff layout preserved:
V: 2 clef=bass middle=d
z |\
dfa dfa | dgb dfa | dfa Be^g | Aea Aea |\
dfa dfa | GBd GBd | GBe Aeg | dfa d2 :|
|: z |\
B3 b3 | f3 B3 | B3 b3 | f3 B3 |\
c'3 c3 | d'3 d3 | a3 A3 | d3 D2 :|
% - - - - - - - - - - - - - - - - - - - - - - - - -
%%begintext align
%% Change sides, back again,
%% down the mid: up again,
%% Right and Left at top.
%%endtext
% - - - - - - - - - - - - - - - - - - - - - - - - -
%%sep 2 5 100

%%sep 1 1 500
%%sep 1 1 500
